X: 18686
T: I'm Not Fed Up With The Pacific Ocean
R: reel
M: 4/4
K: Dmajor
E2|F3F- FDEG|F3F- FDEG|F2EF D2CD|B,3B,- B,2A,2|
F3F- FDEG|F3F- FDEG|F2ED CD EC|D3D- D2:|
|:D2|A2GF EDCD|d2cd BAGF|A2GF EDCD|B,3B,- B,2A,2|
A2GF EDCD|d2cd BAGF|A2GF EDCE|D3D- D2:|
|:A2|f3f- ffeg|f2ef d2cd|B3B- B2c2|B3B- BAGF|
f3f- ffeg|f2ed cdec|d3d- d2e2|d3d- d2:|

